resources/svg/qr-scan-line.svg

<svg xmlns="http://www.w3.org/2000/svg" viewBox="0 0 24 24" fill="currentColor">
    <g>
        <path fill="none" d="M0 0h24v24H0z"/>
        <path d="M21 16v5H3v-5h2v3h14v-3h2zM3 11h18v2H3v-2zm18-3h-2V5H5v3H3V3h18v5z"/>
    </g>
</svg>

<svg fill="currentColor" viewBox="0 0 24 24" xmlns="http://www.w3.org/2000/svg"><path d="M21 16V21H3V16H5V19H19V16H21ZM3 11H21V13H3V11ZM21 8H19V5H5V8H3V3H21V8Z"/></svg>
